raw/symbols/hnt.svg

<svg width="42" height="42" viewBox="0 0 42 42" fill="none" xmlns="http://www.w3.org/2000/svg">
<path d="M21 41C32.0457 41 41 32.0457 41 21C41 9.9543 32.0457 1 21 1C9.9543 1 1 9.9543 1 21C1 32.0457 9.9543 41 21 41Z" fill="#38A2FF"/>
<path d="M25.8878 12.1848C26.955 11.1186 28.7081 11.1186 29.7752 12.1848C30.8424 13.251 30.8424 15.0026 29.7752 16.0688C29.1464 16.6971 28.3079 16.9637 27.4504 16.8494C27.4123 16.8494 27.3742 16.8494 27.317 16.8494C27.0693 16.8113 26.8025 16.8494 26.5357 16.9637C26.1737 17.135 25.9259 17.4206 25.7926 17.7633C25.6592 18.106 25.6782 18.4868 25.8307 18.8295C26.7453 20.8096 26.3261 23.2086 24.7635 24.7508C23.201 26.312 20.819 26.7309 18.8372 25.817C18.4751 25.6456 18.094 25.6456 17.751 25.7789C17.408 25.9122 17.1221 26.1597 16.9697 26.5024C16.8744 26.7309 16.8172 26.9593 16.8363 27.2068C16.8363 27.2449 16.8363 27.302 16.8363 27.3401C16.9887 28.2159 16.6838 29.1108 16.0741 29.7391C15.0069 30.8053 13.2538 30.8053 12.1867 29.7391C11.6722 29.225 11.3863 28.5396 11.3863 27.7971C11.3863 27.0736 11.6722 26.3691 12.1867 25.855C12.8155 25.2267 13.654 24.9602 14.5115 25.0744C14.5305 25.0744 14.5305 25.0744 14.5496 25.0744C14.6449 25.0935 14.7401 25.1125 14.8354 25.1125C15.045 25.1125 15.2356 25.0744 15.4262 24.9792C15.7882 24.8079 16.0359 24.5223 16.1503 24.1986C16.2837 23.8559 16.2837 23.4561 16.1122 23.0943C15.1975 21.0952 15.6167 18.7153 17.1793 17.1731C18.7419 15.6119 21.1239 15.193 23.1057 16.1069C23.4487 16.2782 23.8489 16.2782 24.1919 16.145C24.5349 16.0117 24.8207 15.7642 24.9922 15.4215C25.1256 15.1549 25.1447 14.8503 25.1065 14.5647C24.9731 13.7079 25.259 12.8131 25.8878 12.1848ZM23.1628 23.1515C24.3443 21.971 24.3443 20.048 23.1628 18.8486C21.9814 17.6681 20.0567 17.6681 18.8562 18.8486C17.6748 20.029 17.6748 21.952 18.8562 23.1515C20.0567 24.3319 21.9814 24.3319 23.1628 23.1515ZM30.7852 17.0969C32.4049 15.4786 32.4049 12.8511 30.7852 11.2138C29.1654 9.59541 26.5357 9.59541 24.8969 11.2138C24.2871 11.823 23.9251 12.5656 23.7536 13.3271C20.7999 12.2228 17.427 12.9273 15.1784 15.174C12.9298 17.4206 12.2248 20.8096 13.3491 23.7607C12.5678 23.913 11.8246 24.2938 11.2148 24.9031C9.59506 26.5214 9.59506 29.1489 11.2148 30.7862C12.8346 32.4046 15.4643 32.4046 17.1031 30.7862C17.7129 30.177 18.094 29.4154 18.2464 28.6348C19.1611 28.9775 20.1139 29.1489 21.0667 29.1489C23.1819 29.1489 25.259 28.3302 26.8025 26.788C29.0511 24.5413 29.7562 21.1904 28.67 18.2583C29.4322 18.0679 30.1754 17.6871 30.7852 17.0969Z" fill="#030303"/>
</svg>

<svg xmlns="http://www.w3.org/2000/svg" width="42" height="42" fill="none"><path fill="#38A2FF" d="M21 41c11.046 0 20-8.954 20-20S32.046 1 21 1 1 9.954 1 21s8.954 20 20 20Z"/><path fill="#030303" d="M25.888 12.185a2.762 2.762 0 0 1 3.887 0 2.756 2.756 0 0 1 0 3.884 2.726 2.726 0 0 1-2.325.78h-.133a1.43 1.43 0 0 0-.781.115 1.45 1.45 0 0 0-.743.8c-.134.342-.115.723.038 1.066.914 1.98.495 4.379-1.067 5.92a5.285 5.285 0 0 1-5.927 1.067 1.352 1.352 0 0 0-1.086-.038c-.343.133-.629.38-.781.723a1.5 1.5 0 0 0-.134.705v.133c.153.876-.152 1.77-.762 2.4a2.762 2.762 0 0 1-3.887 0c-.515-.515-.8-1.2-.8-1.943 0-.723.285-1.428.8-1.942a2.727 2.727 0 0 1 2.325-.78h.038c.095.018.19.038.285.038.21 0 .4-.039.591-.134.362-.171.61-.457.724-.78a1.395 1.395 0 0 0-.038-1.105c-.914-1.999-.495-4.379 1.067-5.92a5.285 5.285 0 0 1 5.927-1.067 1.35 1.35 0 0 0 1.086.038c.343-.133.629-.38.8-.723.134-.267.153-.572.114-.857a2.778 2.778 0 0 1 .782-2.38ZM23.163 23.15c1.181-1.18 1.181-3.103 0-4.302-1.182-1.18-3.106-1.18-4.307 0-1.181 1.18-1.181 3.103 0 4.302 1.2 1.18 3.125 1.18 4.307 0Zm7.622-6.054c1.62-1.618 1.62-4.246 0-5.883-1.62-1.619-4.25-1.619-5.888 0a4.286 4.286 0 0 0-1.143 2.113c-2.954-1.104-6.327-.4-8.576 1.847-2.248 2.247-2.953 5.636-1.829 8.587a4.127 4.127 0 0 0-2.134 1.142c-1.62 1.618-1.62 4.246 0 5.883 1.62 1.619 4.25 1.619 5.888 0 .61-.609.991-1.37 1.143-2.151a8.11 8.11 0 0 0 8.556-1.847 8.104 8.104 0 0 0 1.868-8.53 4.658 4.658 0 0 0 2.115-1.161Z"/></svg>
